X: 8753
T: Cucanandy
R: slip jig
M: 9/8
K: Bminor
|:FGF F2 E D2 E|F2 A A2 F A2 d|FF/F/F F2 E D2 E|F2 B B2 ^A B3:|
ABc d2 d cBA|FAA A2 F AFd|AA/B/c dd/e/d cBA|F2 B B2 ^A B3|
A2 c d2 B cBA|F2 A A2 F A3|BAF F2 E D2 E|F2 B B2 ^A B3||

